X:005 
T:Anac Cuan
F:file ID: cre.5/005anac
B:CRE5.049 (Eanach DÃÂÃÂÃÂÃÂºin)
M:6/8
%%Q:140
R:jig
K:Em
D|B,EF GFE|FEF def|edB BAF|AFE DB,A,|
"5"B,EF GFE|FEF def|edB BAF|AFE E2:|
F|"9"EDE ede|fef def|edB BAF|AFE DB,A,|
"13"E2e ede|fef def|edB BAF|AFE E2F|
"17"EDE ede|fef def|edB BAF|AFE DB,A,|
"21"B,EF GFE|FEF def|edB BAF|AFE E3|]

N:This jig is based on a song by the poet Raftery that
concerns a shipwreck in Loch Corrib (Galway). "Anac Cua[i]n"
("The Harbor Wreck") is the most widely-known title for the
song. I don't know where CRE's title (which translates - I think -
to "Fen of the Fortress" [?] - originates. Certainly the editors
(Breathnach and Small) would have known better. . .?

%%%

